public/Kodak-200.cube
TITLE "Kodak Gold 200 (emulated)"
LUT_3D_SIZE 5
0.035000 0.035000 0.035000
0.343565 0.036451 0.029767
0.617651 0.034821 0.022136
0.890950 0.030510 0.011942
1.000000 0.028145 0.003838
0.031767 0.320280 0.022975
0.341296 0.318253 0.011273
0.618706 0.314110 0.000000
0.895529 0.307584 0.000000
1.000000 0.303725 0.000000
0.019587 0.574047 0.002689
0.330584 0.571009 0.000000
0.610456 0.565705 0.000000
0.880533 0.559520 0.000000
1.000000 0.558481 0.000000
0.000000 0.822609 0.000000
0.319164 0.812238 0.000000
0.598321 0.803896 0.000000
0.865315 0.798370 0.000000
1.000000 0.797813 0.000000
0.000500 1.000000 0.000000
0.318641 1.000000 0.000000
0.594636 1.000000 0.000000
0.858899 1.000000 0.000000
1.000000 1.000000 0.000000
0.033744 0.038322 0.280681
0.343061 0.037973 0.279146
0.617781 0.035192 0.274729
0.891694 0.029837 0.267666
1.000000 0.026795 0.261605
0.028512 0.321430 0.275307
0.338766 0.318325 0.267234
0.616807 0.313238 0.257159
0.894244 0.305792 0.244621
1.000000 0.303394 0.237981
0.014571 0.574805 0.260799
0.326287 0.570700 0.247100
0.606181 0.564307 0.236780
0.875643 0.559037 0.232624
1.000000 0.558549 0.231391
0.000000 0.822163 0.239219
0.317217 0.810128 0.233425
0.595746 0.802717 0.231236
0.862126 0.798102 0.231779
1.000000 0.798075 0.233362
0.000854 1.000000 0.231966
0.318294 1.000000 0.231257
0.593667 1.000000 0.233416
0.857320 1.000000 0.238072
1.000000 1.000000 0.241820
0.032240 0.040834 0.510611
0.342251 0.039211 0.512477
0.617562 0.035412 0.511022
0.892049 0.029106 0.506851
1.000000 0.025446 0.502675
0.025160 0.322389 0.511318
0.336088 0.318286 0.506601
0.614715 0.312324 0.499471
0.892536 0.304119 0.489814
1.000000 0.303930 0.483655
0.009586 0.575395 0.502146
0.321970 0.570301 0.491777
0.602530 0.563488 0.481864
0.871421 0.559065 0.474835
1.000000 0.559087 0.471843
0.000000 0.819703 0.485466
0.315732 0.808644 0.476362
0.593676 0.802095 0.471238
0.859485 0.798324 0.468908
1.000000 0.798788 0.468781
0.001472 1.000000 0.473501
0.318264 1.000000 0.469523
0.593060 1.000000 0.468780
0.856149 1.000000 0.470594
1.000000 1.000000 0.472734
0.030510 0.042957 0.730513
0.341179 0.040207 0.735592
0.617052 0.035470 0.736936
0.892084 0.028277 0.735496
1.000000 0.024036 0.733100
0.021685 0.323171 0.736927
0.333254 0.318121 0.735385
0.612438 0.311331 0.731040
0.887233 0.304532 0.722062
1.000000 0.304839 0.714187
0.004562 0.575822 0.732797
0.318507 0.569517 0.724563
0.599351 0.563102 0.711846
0.867700 0.559482 0.702098
1.000000 0.559987 0.697441
0.000000 0.817759 0.716546
0.314609 0.807624 0.704311
0.591999 0.801892 0.696409
0.857266 0.798919 0.691361
1.000000 0.799848 0.689618
0.002316 1.000000 0.700225
0.318493 1.000000 0.693153
0.592744 1.000000 0.689661
0.855299 1.000000 0.688784
1.000000 1.000000 0.689402
0.028573 0.044783 0.942954
0.339873 0.040992 0.951101
0.616286 0.035374 0.955118
0.891843 0.027339 0.956287
1.000000 0.022550 0.955590
0.018085 0.323789 0.954785
0.330268 0.317832 0.956279
0.609987 0.310249 0.954599
0.882410 0.305279 0.942408
1.000000 0.306060 0.932893
0.000000 0.576098 0.955471
0.316255 0.568704 0.945408
0.596566 0.563076 0.930031
0.864395 0.560223 0.917684
1.000000 0.561191 0.911435
0.000000 0.816237 0.935782
0.313797 0.806986 0.920552
0.590655 0.802036 0.909995
0.855401 0.799827 0.902347
1.000000 0.801201 0.899058
0.003360 1.000000 0.915395
0.318948 1.000000 0.905360
0.592677 1.000000 0.899238
0.854720 1.000000 0.895785
1.000000 1.000000 0.894946
