public/Kodak-200.cube
TITLE "Kodak Gold 200 (emulated)"
LUT_3D_SIZE 9
0.035000 0.035000 0.035000
0.199302 0.036222 0.032673
0.343565 0.036451 0.029767
0.482144 0.035957 0.026246
0.617651 0.034821 0.022136
0.751254 0.033090 0.017460
0.890950 0.030510 0.011942
1.000000 0.027743 0.006252
1.000000 0.028145 0.003838
0.034711 0.186848 0.030075
0.198475 0.186426 0.025912
0.343618 0.185494 0.021400
0.483088 0.184001 0.016365
0.619473 0.181968 0.010802
0.753937 0.179412 0.004718
0.894626 0.176047 0.000000
1.000000 0.172571 0.000000
1.000000 0.172517 0.000000
0.031767 0.320280 0.022975
0.195403 0.319511 0.017211
0.341296 0.318253 0.011273
0.481544 0.316448 0.004884
0.618706 0.314110 0.000000
0.753940 0.311256 0.000000
0.895529 0.307584 0.000000
1.000000 0.303837 0.000000
1.000000 0.303725 0.000000
0.026662 0.448545 0.013804
0.190300 0.447499 0.006538
0.336900 0.445982 0.000000
0.477884 0.443929 0.000000
0.615784 0.441351 0.000000
0.751750 0.438262 0.000000
0.891491 0.434949 0.000000
1.000000 0.432989 0.000000
1.000000 0.433772 0.000000
0.019587 0.574047 0.002689
0.183306 0.572754 0.000000
0.330584 0.571009 0.000000
0.472279 0.568736 0.000000
0.610456 0.565705 0.000000
0.743781 0.562386 0.000000
0.880533 0.559520 0.000000
1.000000 0.557663 0.000000
1.000000 0.558481 0.000000
0.010664 0.697862 0.000000
0.174516 0.696341 0.000000
0.322494 0.694339 0.000000
0.466037 0.689513 0.000000
0.603383 0.685553 0.000000
0.735914 0.682351 0.000000
0.871927 0.679606 0.000000
0.993494 0.677861 0.000000
1.000000 0.678722 0.000000
0.000000 0.822609 0.000000
0.167544 0.817896 0.000000
0.319164 0.812238 0.000000
0.461811 0.807639 0.000000
0.598321 0.803896 0.000000
0.730053 0.800903 0.000000
0.865315 0.798370 0.000000
0.985888 0.796826 0.000000
1.000000 0.797813 0.000000
0.000000 0.940008 0.000000
0.167250 0.932685 0.000000
0.317874 0.927077 0.000000
0.459647 0.922514 0.000000
0.595342 0.918799 0.000000
0.726299 0.915829 0.000000
0.860829 0.913322 0.000000
0.980438 0.911795 0.000000
1.000000 0.912721 0.000000
0.000500 1.000000 0.000000
0.168928 1.000000 0.000000
0.318641 1.000000 0.000000
0.459639 1.000000 0.000000
0.594636 1.000000 0.000000
0.724950 1.000000 0.000000
0.858899 1.000000 0.000000
0.977709 1.000000 0.000000
1.000000 1.000000 0.000000
0.034415 0.036861 0.157818
0.198924 0.037410 0.156486
0.343360 0.037274 0.154443
0.482101 0.036473 0.151742
0.617764 0.035057 0.148425
0.751518 0.033063 0.144522
0.891370 0.030218 0.139801
1.000000 0.027212 0.134845
1.000000 0.027512 0.132722
0.033598 0.187612 0.154688
0.197557 0.186899 0.151499
0.342870 0.185712 0.147841
0.482501 0.183978 0.143619
0.619042 0.181711 0.138843
0.753658 0.178927 0.133526
0.894504 0.175326 0.127349
1.000000 0.171635 0.121084
1.000000 0.171503 0.118586
0.030181 0.320895 0.149139
0.194010 0.319839 0.144342
0.340073 0.318328 0.139257
0.480482 0.316282 0.133680
0.617799 0.313711 0.127594
0.753185 0.310630 0.121002
0.894930 0.306724 0.113504
1.000000 0.302763 0.106052
1.000000 0.303325 0.104717
0.024626 0.449053 0.141442
0.188457 0.447722 0.135136
0.335226 0.445953 0.128698
0.476371 0.443660 0.121833
0.614426 0.440849 0.114503
0.750543 0.437534 0.106699
0.888554 0.434646 0.103476
1.000000 0.432898 0.102054
1.000000 0.433749 0.101699
0.017118 0.574465 0.131751
0.181028 0.572890 0.124000
0.328475 0.570892 0.116257
0.470331 0.568380 0.108150
0.608268 0.564960 0.103836
0.741442 0.561866 0.102224
0.878037 0.559234 0.101230
1.000000 0.557588 0.100924
1.000000 0.558471 0.100946
0.007772 0.698200 0.120172
0.171815 0.696397 0.111023
0.321050 0.693149 0.104401
0.464432 0.688562 0.102528
0.601623 0.684832 0.101396
0.734004 0.681855 0.100938
0.869859 0.679343 0.101139
0.991285 0.677810 0.101914
1.000000 0.678732 0.102266
0.000000 0.822937 0.106542
0.166692 0.816545 0.103095
0.318143 0.811136 0.101639
0.460630 0.806774 0.100984
0.596985 0.803261 0.101033
0.728567 0.800492 0.101728
0.863671 0.798191 0.103125
0.984104 0.796858 0.104981
1.000000 0.797900 0.105630
0.000000 0.938342 0.102279
0.166820 0.931297 0.101142
0.317275 0.925938 0.100948
0.458888 0.921612 0.101492
0.594428 0.918127 0.102698
0.725234 0.915380 0.104520
0.859607 0.913106 0.107084
0.979076 0.911788 0.109984
1.000000 0.912767 0.110878
0.000637 1.000000 0.100979
0.168880 1.000000 0.101118
0.318426 1.000000 0.102031
0.459266 1.000000 0.103594
0.594109 1.000000 0.105753
0.724273 1.000000 0.108472
0.858066 1.000000 0.111939
0.976737 1.000000 0.115604
1.000000 1.000000 0.116553
0.033744 0.038322 0.280681
0.198454 0.038437 0.280333
0.343061 0.037973 0.279146
0.481963 0.036879 0.277259
0.617781 0.035192 0.274729
0.751686 0.032941 0.271594
0.891694 0.029837 0.267666
1.000000 0.026594 0.263439
1.000000 0.026795 0.261605
0.032400 0.188295 0.279314
0.196553 0.187293 0.277094
0.342036 0.185853 0.274286
0.481827 0.183879 0.270873
0.618522 0.181379 0.266878
0.753289 0.178368 0.262325
0.894291 0.174532 0.256937
1.000000 0.170626 0.251395
1.000000 0.170417 0.249168
0.028512 0.321430 0.275307
0.192534 0.320088 0.271471
0.338766 0.318325 0.267234
0.479335 0.316040 0.262464
0.616807 0.313238 0.257159
0.752343 0.309932 0.251330
0.894244 0.305792 0.244621
1.000000 0.302487 0.239023
1.000000 0.303394 0.237981
0.022511 0.449482 0.269073
0.186533 0.447867 0.263722
0.333470 0.445847 0.258131
0.474776 0.443316 0.252073
0.612985 0.440274 0.245523
0.748534 0.436945 0.239280
0.885722 0.434434 0.236272
1.000000 0.432896 0.234132
1.000000 0.433815 0.233532
0.014571 0.574805 0.260799
0.178671 0.572948 0.253997
0.326287 0.570700 0.247100
0.468312 0.567930 0.239875
0.606181 0.564307 0.236780
0.739205 0.561437 0.234407
0.875643 0.559037 0.232624
0.997917 0.557602 0.231601
1.000000 0.558549 0.231391
0.004805 0.698460 0.250600
0.169037 0.696377 0.242397
0.319702 0.692053 0.237558
0.462925 0.687703 0.234881
0.599962 0.684204 0.232970
0.732192 0.681450 0.231751
0.867892 0.679171 0.231164
0.989177 0.677847 0.231225
1.000000 0.678830 0.231357
0.000000 0.822163 0.239219
0.165934 0.815289 0.235725
0.317217 0.810128 0.233425
0.459545 0.806002 0.231967
0.595746 0.802717 0.231236
0.727177 0.800171 0.231171
0.862126 0.798102 0.231779
0.982418 0.796977 0.232922
1.000000 0.798075 0.233362
0.000000 0.936773 0.234495
0.166481 0.930003 0.232423
0.316768 0.924892 0.231386
0.458222 0.920802 0.231127
0.593609 0.917545 0.231555
0.724264 0.915021 0.232617
0.858481 0.912979 0.234394
0.977810 0.911869 0.236583
1.000000 0.912899 0.237282
0.000854 1.000000 0.231966
0.168913 1.000000 0.231178
0.318294 1.000000 0.231257
0.458976 1.000000 0.232026
0.593667 1.000000 0.233416
0.723681 1.000000 0.235385
0.857320 1.000000 0.238072
0.975852 1.000000 0.241037
1.000000 1.000000 0.241820
0.033020 0.039635 0.397403
0.197921 0.039384 0.397981
0.342690 0.038621 0.397601
0.481745 0.037258 0.396480
0.617710 0.035319 0.394692
0.751759 0.032826 0.392281
0.891915 0.029478 0.389102
1.000000 0.026013 0.385562
1.000000 0.026120 0.384001
0.031180 0.188939 0.397686
0.195518 0.187664 0.396380
0.341160 0.185984 0.394375
0.481104 0.183782 0.391724
0.617945 0.181063 0.388468
0.752855 0.177837 0.384635
0.894005 0.173780 0.379992
1.000000 0.169671 0.375132
1.000000 0.169388 0.373161
0.026847 0.321931 0.395131
0.191052 0.320319 0.392203
0.337444 0.318318 0.388767
0.478164 0.315806 0.384758
0.615782 0.312786 0.380191
0.751461 0.309266 0.375082
0.893510 0.304905 0.369117
1.000000 0.302633 0.364580
1.000000 0.303607 0.363295
0.020423 0.449880 0.390279
0.184627 0.447998 0.385830
0.331724 0.445741 0.381038
0.473181 0.442984 0.375741
0.611536 0.439724 0.369928
0.746081 0.436670 0.364898
0.883121 0.434379 0.361146
1.000000 0.433040 0.358327
1.000000 0.434023 0.357496
0.012075 0.575119 0.383341
0.176355 0.572995 0.377436
0.324131 0.570510 0.371337
0.466563 0.567239 0.365624
0.604285 0.563833 0.361793
0.737167 0.561175 0.358702
0.873458 0.558994 0.356175
0.995598 0.557758 0.354476
1.000000 0.558765 0.354046
0.001911 0.698698 0.374446
0.166367 0.696323 0.367152
0.318508 0.691158 0.362774
0.461580 0.687033 0.359337
0.598470 0.683750 0.356690
0.730558 0.681208 0.354754
0.866110 0.679148 0.353422
0.987262 0.678023 0.352808
1.000000 0.679063 0.352733
0.000000 0.820854 0.364824
0.165299 0.814243 0.360442
0.316423 0.809317 0.357345
0.458600 0.805414 0.355128
0.594655 0.802344 0.353662
0.725944 0.800009 0.352879
0.860744 0.798158 0.352742
0.980904 0.797230 0.353212
1.000000 0.798382 0.353455
0.000000 0.935425 0.358824
0.166241 0.928916 0.355867
0.316371 0.924040 0.354035
0.457673 0.920172 0.353018
0.592914 0.917131 0.352712
0.723428 0.914817 0.353057
0.857497 0.912993 0.354089
0.976694 0.912080 0.355607
1.000000 0.913160 0.356122
0.001134 1.000000 0.355159
0.169019 1.000000 0.353496
0.318243 1.000000 0.352787
0.458776 1.000000 0.352805
0.593323 1.000000 0.353469
0.723197 1.000000 0.354728
0.856689 1.000000 0.356678
0.975090 1.000000 0.358982
1.000000 1.000000 0.359608
0.032240 0.040834 0.510611
0.197325 0.040250 0.512080
0.342251 0.039211 0.512477
0.481454 0.037592 0.512095
0.617562 0.035412 0.511022
0.751749 0.032688 0.509310
0.892049 0.029106 0.506851
1.000000 0.025427 0.503974
1.000000 0.025446 0.502675
0.029922 0.189537 0.512473
0.194439 0.187998 0.512048
0.340236 0.186088 0.510817
0.480327 0.183666 0.508902
0.617310 0.180734 0.506358
0.752358 0.177302 0.503220
0.893651 0.173030 0.499296
1.000000 0.168725 0.495093
1.000000 0.168372 0.493369
0.025160 0.322389 0.511318
0.189541 0.320516 0.509264
0.336088 0.318286 0.506601
0.476955 0.315556 0.503327
0.614715 0.312324 0.499471
0.750532 0.308599 0.495055
0.892536 0.304119 0.489814
1.000000 0.302891 0.485174
1.000000 0.303930 0.483655
0.018328 0.450239 0.507797
0.182707 0.448098 0.504217
0.329959 0.445612 0.500196
0.471562 0.442637 0.495633
0.610059 0.439167 0.490530
0.743786 0.436519 0.485551
0.880683 0.434439 0.481081
1.000000 0.433293 0.477608
1.000000 0.434337 0.476554
0.009586 0.575395 0.502146
0.174040 0.573014 0.497106
0.321970 0.570301 0.491777
0.464949 0.566684 0.486405
0.602530 0.563488 0.481864
0.735274 0.561034 0.478080
0.871421 0.559065 0.474835
0.993433 0.558021 0.472484
1.000000 0.559087 0.471843
0.000000 0.698900 0.494508
0.165442 0.695343 0.488188
0.317429 0.690406 0.483041
0.460355 0.686496 0.478871
0.597105 0.683423 0.475516
0.729055 0.681085 0.472887
0.864464 0.679237 0.470837
0.985488 0.678304 0.469573
1.000000 0.679399 0.469297
0.000000 0.819703 0.485466
0.164761 0.813345 0.480227
0.315732 0.808644 0.476362
0.457763 0.804957 0.473412
0.593676 0.802095 0.471238
0.724828 0.799963 0.469762
0.859485 0.798324 0.468908
0.979517 0.797585 0.468728
1.000000 0.798788 0.468781
0.000000 0.934232 0.478237
0.166086 0.927975 0.474427
0.316062 0.923324 0.471828
0.457219 0.919672 0.470080
0.592319 0.916838 0.469065
0.722695 0.914728 0.468719
0.856621 0.913115 0.469033
0.975690 0.912391 0.469905
1.000000 0.913519 0.470242
0.001472 1.000000 0.473501
0.169190 1.000000 0.470993
0.318264 1.000000 0.469523
0.458653 1.000000 0.468818
0.593060 1.000000 0.468780
0.722798 1.000000 0.469355
0.856149 1.000000 0.470594
0.974423 1.000000 0.472260
1.000000 1.000000 0.472734
0.031404 0.041938 0.621437
0.196667 0.041043 0.623775
0.341746 0.039739 0.624927
0.481094 0.037876 0.625264
0.617341 0.035463 0.624887
0.751663 0.032517 0.623853
0.892103 0.028708 0.622096
1.000000 0.024822 0.619864
1.000000 0.024754 0.618820
0.028622 0.190088 0.624827
0.193312 0.188292 0.625261
0.339261 0.186156 0.624783
0.479495 0.183521 0.623585
0.616617 0.180382 0.621734
0.751799 0.176747 0.619272
0.893232 0.172267 0.616047
1.000000 0.167772 0.612486
1.000000 0.167349 0.611002
0.023441 0.322803 0.625033
0.187995 0.320675 0.623832
0.334692 0.318221 0.621920
0.475703 0.315279 0.619362
0.613601 0.311841 0.616198
0.749552 0.307915 0.612458
0.889823 0.304283 0.607398
1.000000 0.303241 0.602120
1.000000 0.304344 0.600372
0.016211 0.450556 0.622807
0.180761 0.448162 0.620074
0.328164 0.445453 0.616804
0.469910 0.442266 0.612956
0.608201 0.438832 0.608201
0.741620 0.436470 0.602555
0.878378 0.434596 0.597386
1.000000 0.433638 0.593276
1.000000 0.434742 0.592006
0.007084 0.575630 0.618410
0.171709 0.572998 0.614211
0.319789 0.570063 0.609633
0.463447 0.566241 0.603534
0.600890 0.563249 0.598302
0.733500 0.560993 0.593843
0.869508 0.559231 0.589900
0.991393 0.558374 0.586913
1.000000 0.559497 0.586066
0.000000 0.699063 0.611995
0.164613 0.694485 0.605566
0.316450 0.689769 0.599670
0.459233 0.686070 0.594787
0.595845 0.683200 0.590741
0.727661 0.681062 0.587438
0.862931 0.679420 0.584689
0.983829 0.678673 0.582791
1.000000 0.679822 0.582321
0.000000 0.818677 0.602459
0.164310 0.812565 0.596386
0.315130 0.808085 0.591773
0.457018 0.804607 0.588111
0.592794 0.801949 0.585246
0.723812 0.800014 0.583096
0.858330 0.798581 0.581542
0.978236 0.798028 0.580730
1.000000 0.799280 0.580599
0.000000 0.933163 0.594035
0.166007 0.927151 0.589395
0.315833 0.922720 0.586050
0.456848 0.919278 0.583590
0.591810 0.916647 0.581885
0.722053 0.914734 0.580866
0.855839 0.913327 0.580481
0.974783 0.912787 0.580722
1.000000 0.913962 0.580886
0.001867 1.000000 0.588280
0.169421 1.000000 0.584949
0.318348 1.000000 0.582740
0.458597 1.000000 0.581329
0.592869 1.000000 0.580608
0.722475 1.000000 0.580516
0.855688 1.000000 0.581062
0.973839 1.000000 0.582107
1.000000 1.000000 0.582433
0.030510 0.042957 0.730513
0.195949 0.041764 0.733700
0.341179 0.040207 0.735592
0.480669 0.038108 0.736632
0.617052 0.035470 0.736936
0.751507 0.032307 0.736567
0.892084 0.028277 0.735496
1.000000 0.024188 0.733894
1.000000 0.024036 0.733100
0.027276 0.190592 0.735391
0.192137 0.188544 0.736665
0.338234 0.186187 0.736925
0.478609 0.183342 0.736427
0.615866 0.180000 0.735255
0.751181 0.176168 0.733456
0.892750 0.171483 0.730916
1.000000 0.166801 0.727982
1.000000 0.166362 0.726697
0.021685 0.323171 0.736927
0.186408 0.320794 0.736560
0.333254 0.318121 0.735385
0.474405 0.314970 0.733526
0.612438 0.311331 0.731040
0.748521 0.307208 0.727962
0.887233 0.304532 0.722062
1.000000 0.303675 0.716158
1.000000 0.304839 0.714187
0.014066 0.450828 0.735968
0.178784 0.448187 0.734063
0.326334 0.445259 0.731529
0.468220 0.441864 0.728380
0.606279 0.438678 0.722959
0.739566 0.436510 0.716652
0.876187 0.434839 0.710799
0.998954 0.434064 0.706065
1.000000 0.435227 0.704582
0.004562 0.575822 0.732797
0.169354 0.572945 0.729423
0.318507 0.569517 0.724563
0.462043 0.565895 0.717754
0.599351 0.563102 0.711846
0.731829 0.561042 0.706726
0.867700 0.559482 0.702098
0.989463 0.558808 0.698490
1.000000 0.559987 0.697441
0.000000 0.699185 0.727579
0.163869 0.693731 0.720031
0.315559 0.689231 0.713401
0.458203 0.685739 0.707820
0.594679 0.683070 0.703097
0.726364 0.681126 0.699134
0.861496 0.679687 0.695701
0.982271 0.679122 0.693183
1.000000 0.680324 0.692521
0.000000 0.817759 0.716546
0.163936 0.811889 0.709656
0.314609 0.807624 0.704311
0.456358 0.804352 0.699951
0.591999 0.801892 0.696409
0.722885 0.800152 0.693600
0.857266 0.798919 0.691361
0.977050 0.798547 0.689930
1.000000 0.799848 0.689618
0.000000 0.932200 0.706954
0.165999 0.926429 0.701501
0.315678 0.922214 0.697424
0.456553 0.918976 0.694267
0.591381 0.916544 0.691888
0.721492 0.914825 0.690209
0.855142 0.913619 0.689140
0.973963 0.913260 0.688764
1.000000 0.914481 0.688758
0.002316 1.000000 0.700225
0.169710 1.000000 0.696088
0.318493 1.000000 0.693153
0.458605 1.000000 0.691051
0.592744 1.000000 0.689661
0.722220 1.000000 0.688917
0.855299 1.000000 0.688784
0.973329 1.000000 0.689220
1.000000 1.000000 0.689402
0.029571 0.043908 0.836958
0.195181 0.042433 0.840969
0.340557 0.040632 0.843578
0.480185 0.038305 0.845300
0.616701 0.035450 0.846265
0.751285 0.032077 0.846540
0.891997 0.027833 0.846135
1.000000 0.023549 0.845146
1.000000 0.023316 0.844593
0.025899 0.191059 0.843271
0.190926 0.188766 0.845361
0.337168 0.186194 0.846337
0.477679 0.183146 0.846520
0.615069 0.179607 0.846006
0.750512 0.175583 0.844850
0.892215 0.170699 0.842975
1.000000 0.165835 0.840650
1.000000 0.166987 0.838020
0.019910 0.323505 0.846097
0.184798 0.320886 0.846540
0.331787 0.318000 0.846080
0.473075 0.314646 0.844901
0.611240 0.310812 0.843073
0.747452 0.306498 0.840638
0.884779 0.304872 0.832954
1.000000 0.304194 0.826443
1.000000 0.305417 0.824255
0.011912 0.451068 0.846367
0.176793 0.448187 0.845268
0.324487 0.445047 0.843447
0.466510 0.441450 0.840978
0.604474 0.438624 0.833944
0.737634 0.436646 0.826995
0.874121 0.435171 0.820477
0.996768 0.434574 0.815138
1.000000 0.435794 0.813449
0.002042 0.575985 0.844387
0.166996 0.572869 0.841813
0.317344 0.569074 0.835705
0.460744 0.565653 0.828218
0.597920 0.563055 0.821652
0.730270 0.561183 0.815891
0.866008 0.559820 0.810599
0.987651 0.559324 0.806386
1.000000 0.560557 0.805142
0.000000 0.699016 0.839880
0.163212 0.693091 0.830731
0.314758 0.688803 0.823390
0.457266 0.685512 0.817131
0.593611 0.683036 0.811752
0.725168 0.681281 0.807148
0.860167 0.680039 0.803050
0.980822 0.679652 0.799930
1.000000 0.680905 0.799083
0.000000 0.816961 0.826880
0.163639 0.811325 0.819197
0.314169 0.807270 0.813141
0.455782 0.804197 0.808103
0.591292 0.801930 0.803905
0.722050 0.800378 0.800455
0.856298 0.799341 0.797551
0.975962 0.799146 0.795520
1.000000 0.800494 0.795032
0.000000 0.931356 0.816156
0.166056 0.925818 0.809914
0.315592 0.921812 0.805127
0.456332 0.918774 0.801293
0.591028 0.916534 0.798258
0.721011 0.915003 0.795938
0.854528 0.913993 0.794205
0.973231 0.913810 0.793230
1.000000 0.915075 0.793060
0.002812 1.000000 0.808505
0.170050 1.000000 0.803585
0.318693 1.000000 0.799945
0.458671 1.000000 0.797172
0.592681 1.000000 0.795132
0.722031 1.000000 0.793753
0.854979 1.000000 0.792961
0.972892 1.000000 0.792807
1.000000 1.000000 0.792847
0.028573 0.044783 0.942954
0.194352 0.043031 0.947781
0.339873 0.040992 0.951101
0.479638 0.038443 0.953499
0.616286 0.035374 0.955118
0.750999 0.031795 0.956032
0.891843 0.027339 0.956287
1.000000 0.022862 0.955904
1.000000 0.022550 0.955590
0.024468 0.191474 0.950682
0.189660 0.188938 0.953581
0.336045 0.186154 0.955266
0.476692 0.182903 0.956124
0.614212 0.179170 0.956264
0.749783 0.174955 0.955745
0.891618 0.169874 0.954528
1.000000 0.166340 0.950881
1.000000 0.167676 0.947900
0.018085 0.323789 0.954785
0.183135 0.320930 0.956031
0.330268 0.317832 0.956279
0.471691 0.314278 0.955774
0.609987 0.310249 0.954599
0.745289 0.306652 0.950853
0.882410 0.305279 0.942408
1.000000 0.304777 0.935296
1.000000 0.306060 0.932893
0.009712 0.451258 0.956273
0.174755 0.448139 0.955971
0.322591 0.444788 0.954858
0.464855 0.441158 0.951927
0.602750 0.438640 0.943490
0.735782 0.436849 0.935906
0.872138 0.435568 0.928729
0.994665 0.435148 0.922791
1.000000 0.436426 0.920897
0.000000 0.576098 0.955471
0.164593 0.572746 0.953691
0.316255 0.568704 0.945408
0.459519 0.565481 0.937248
0.596566 0.563076 0.930031
0.728788 0.561392 0.923635
0.864395 0.560223 0.917684
0.985918 0.559904 0.912873
1.000000 0.561191 0.911435
0.000000 0.698216 0.949936
0.162623 0.692526 0.939998
0.314028 0.688447 0.931951
0.456401 0.685354 0.925020
0.592616 0.683071 0.918990
0.724045 0.681504 0.913751
0.858913 0.680456 0.908994
0.979449 0.680245 0.905278
1.000000 0.681549 0.904247
0.000000 0.816237 0.935782
0.163409 0.810833 0.927313
0.313797 0.806986 0.920552
0.455275 0.804111 0.914843
0.590655 0.802036 0.909995
0.721286 0.800670 0.905909
0.855401 0.799827 0.902347
0.974947 0.799806 0.899720
1.000000 0.801201 0.899058
0.000000 0.930585 0.923938
0.166176 0.925279 0.916913
0.315571 0.921480 0.911423
0.456177 0.918640 0.906918
0.590743 0.916591 0.903233
0.720599 0.915247 0.900279
0.853984 0.914430 0.897887
0.972568 0.914422 0.896319
1.000000 0.915730 0.895986
0.003360 1.000000 0.915395
0.170444 1.000000 0.909699
0.318948 1.000000 0.905360
0.458795 1.000000 0.901922
0.592677 1.000000 0.899238
0.721902 1.000000 0.897231
0.854720 1.000000 0.895785
0.972516 1.000000 0.895044
1.000000 1.000000 0.894946
