public/Kodak-200.cube
TITLE "Kodak Gold 200 (emulated)"
LUT_3D_SIZE 33
0.035000 0.035000 0.035000
0.081934 0.035456 0.034444
0.122745 0.035782 0.033890
0.161609 0.036033 0.033300
0.199302 0.036222 0.032673
0.236176 0.036354 0.032005
0.272432 0.036435 0.031298
0.308198 0.036466 0.030552
0.343565 0.036451 0.029767
0.378598 0.036391 0.028943
0.413347 0.036288 0.028082
0.447852 0.036143 0.027183
0.482144 0.035957 0.026246
0.516250 0.035731 0.025273
0.550192 0.035466 0.024263
0.583987 0.035163 0.023218
0.617651 0.034821 0.022136
0.651199 0.034443 0.021019
0.684642 0.034028 0.019868
0.717991 0.033577 0.018681
0.751254 0.033090 0.017460
0.784441 0.032569 0.016205
0.820321 0.031910 0.014810
0.856139 0.031212 0.013377
0.890950 0.030510 0.011942
0.924763 0.029810 0.010509
0.957587 0.029113 0.009081
0.989432 0.028424 0.007661
1.000000 0.027743 0.006252
1.000000 0.027075 0.004856
1.000000 0.026894 0.003962
1.000000 0.027521 0.003900
1.000000 0.028145 0.003838
0.035258 0.078363 0.033945
0.081789 0.078399 0.033247
0.122638 0.078436 0.032565
0.161559 0.078441 0.031854
0.199314 0.078411 0.031110
0.236251 0.078343 0.030329
0.272570 0.078239 0.029512
0.308400 0.078098 0.028657
0.343831 0.077920 0.027766
0.378927 0.077706 0.026838
0.413738 0.077456 0.025874
0.448306 0.077171 0.024873
0.482660 0.076851 0.023836
0.516827 0.076496 0.022764
0.550829 0.076106 0.021657
0.584684 0.075682 0.020514
0.618409 0.075225 0.019337
0.652016 0.074734 0.018126
0.685518 0.074210 0.016880
0.718925 0.073653 0.015600
0.752246 0.073064 0.014286
0.785490 0.072442 0.012939
0.821493 0.071682 0.011444
0.857356 0.070888 0.009912
0.892208 0.070094 0.008383
0.926062 0.069303 0.006860
0.958924 0.068518 0.005344
0.990805 0.067743 0.003840
1.000000 0.066979 0.002350
1.000000 0.066230 0.000876
1.000000 0.065998 0.000000
1.000000 0.066558 0.000000
1.000000 0.067118 0.000000
0.035260 0.116077 0.032797
0.081537 0.116059 0.031971
0.122413 0.116042 0.031171
0.161378 0.115995 0.030350
0.199183 0.115912 0.029498
0.236174 0.115794 0.028613
0.272548 0.115640 0.027694
0.308434 0.115449 0.026739
0.343920 0.115222 0.025749
0.379072 0.114960 0.024723
0.413939 0.114663 0.023663
0.448562 0.114330 0.022567
0.482972 0.113963 0.021437
0.517195 0.113562 0.020271
0.551252 0.113127 0.019072
0.585163 0.112658 0.017838
0.618942 0.112156 0.016570
0.652604 0.111621 0.015268
0.686160 0.111053 0.013933
0.719621 0.110453 0.012564
0.752996 0.109820 0.011163
0.786294 0.109156 0.009728
0.822415 0.108350 0.008135
0.858318 0.107513 0.006511
0.893209 0.106677 0.004892
0.927099 0.105846 0.003282
0.959996 0.105021 0.001682
0.991910 0.104206 0.000097
1.000000 0.103404 0.000000
1.000000 0.102617 0.000000
1.000000 0.102376 0.000000
1.000000 0.102910 0.000000
1.000000 0.103443 0.000000
0.035071 0.152000 0.031507
0.081145 0.151946 0.030559
0.122044 0.151893 0.029649
0.161049 0.151810 0.028722
0.198902 0.151693 0.027769
0.235942 0.151540 0.026784
0.272368 0.151352 0.025767
0.308306 0.151128 0.024716
0.343845 0.150868 0.023632
0.379050 0.150573 0.022513
0.413971 0.150243 0.021360
0.448647 0.149879 0.020174
0.483110 0.149480 0.018953
0.517386 0.149047 0.017698
0.551496 0.148580 0.016410
0.585459 0.148080 0.015088
0.619291 0.147547 0.013733
0.653005 0.146981 0.012345
0.686613 0.146383 0.010923
0.720126 0.145752 0.009469
0.753553 0.145089 0.007983
0.786903 0.144395 0.006463
0.823139 0.143556 0.004777
0.859080 0.142689 0.003063
0.894007 0.141824 0.001358
0.927932 0.140964 0.000000
0.960862 0.140111 0.000000
0.992807 0.139268 0.000000
1.000000 0.138439 0.000000
1.000000 0.137625 0.000000
1.000000 0.137386 0.000000
1.000000 0.137904 0.000000
1.000000 0.138421 0.000000
0.034711 0.186848 0.030075
0.080614 0.186765 0.029010
0.121533 0.186682 0.027993
0.160577 0.186571 0.026964
0.198475 0.186426 0.025912
0.235564 0.186246 0.024831
0.272039 0.186031 0.023719
0.308028 0.185780 0.022576
0.343618 0.185494 0.021400
0.378874 0.185172 0.020191
0.413846 0.184816 0.018949
0.448574 0.184426 0.017674
0.483088 0.184001 0.016365
0.517415 0.183543 0.015024
0.551576 0.183051 0.013649
0.585590 0.182526 0.012242
0.619473 0.181968 0.010802
0.653237 0.181377 0.009330
0.686896 0.180754 0.007825
0.720460 0.180099 0.006288
0.753937 0.179412 0.004718
0.787337 0.178693 0.003117
0.823687 0.177827 0.001339
0.859664 0.176936 0.000000
0.894626 0.176047 0.000000
0.928583 0.175163 0.000000
0.961545 0.174287 0.000000
0.993520 0.173422 0.000000
1.000000 0.172571 0.000000
1.000000 0.171736 0.000000
1.000000 0.171504 0.000000
1.000000 0.172011 0.000000
1.000000 0.172517 0.000000
0.034194 0.220944 0.028502
0.079946 0.220836 0.027325
0.120885 0.220729 0.026204
0.159966 0.220593 0.025076
0.197907 0.220424 0.023927
0.235043 0.220220 0.022752
0.271567 0.219982 0.021548
0.307604 0.219708 0.020314
0.343244 0.219399 0.019049
0.378550 0.219055 0.017751
0.413572 0.218676 0.016422
0.448350 0.218263 0.015061
0.482914 0.217817 0.013667
0.517291 0.217336 0.012240
0.551502 0.216823 0.010782
0.585566 0.216276 0.009291
0.619498 0.215696 0.007768
0.653313 0.215084 0.006213
0.687021 0.214440 0.004627
0.720634 0.213763 0.003008
0.754160 0.213055 0.001358
0.787608 0.212315 0.000000
0.824071 0.211425 0.000000
0.860084 0.210513 0.000000
0.895079 0.209603 0.000000
0.929069 0.208699 0.000000
0.962061 0.207803 0.000000
0.994064 0.206919 0.000000
1.000000 0.206049 0.000000
1.000000 0.205196 0.000000
1.000000 0.204975 0.000000
1.000000 0.205473 0.000000
1.000000 0.205971 0.000000
0.033527 0.254475 0.026793
0.079145 0.254345 0.025506
0.120103 0.254214 0.024283
0.159220 0.254057 0.023057
0.197204 0.253866 0.021814
0.234385 0.253641 0.020547
0.270956 0.253381 0.019253
0.307041 0.253087 0.017930
0.342729 0.252757 0.016577
0.378084 0.252393 0.015193
0.413156 0.251994 0.013778
0.447982 0.251561 0.012332
0.482595 0.251095 0.010854
0.517021 0.250595 0.009345
0.551282 0.250061 0.007804
0.585394 0.249495 0.006231
0.619375 0.248896 0.004627
0.653238 0.248265 0.002991
0.686995 0.247601 0.001324
0.720656 0.246906 0.000000
0.754231 0.246179 0.000000
0.787727 0.245420 0.000000
0.824301 0.244508 0.000000
0.860348 0.243576 0.000000
0.895376 0.242648 0.000000
0.929397 0.241726 0.000000
0.962418 0.240813 0.000000
0.994450 0.239911 0.000000
1.000000 0.239024 0.000000
1.000000 0.238154 0.000000
1.000000 0.237947 0.000000
1.000000 0.238439 0.000000
1.000000 0.238930 0.000000
0.032716 0.287560 0.024950
0.078214 0.287408 0.023555
0.119190 0.287257 0.022232
0.158343 0.287079 0.020911
0.196368 0.286868 0.019575
0.233594 0.286624 0.018218
0.270210 0.286344 0.016835
0.306343 0.286031 0.015424
0.342079 0.285682 0.013985
0.377482 0.285299 0.012516
0.412601 0.284882 0.011017
0.447476 0.284431 0.009487
0.482138 0.283946 0.007927
0.516612 0.283428 0.006335
0.550920 0.282876 0.004713
0.585081 0.282292 0.003060
0.619110 0.281675 0.001375
0.653021 0.281026 0.000000
0.686825 0.280345 0.000000
0.720534 0.279632 0.000000
0.754156 0.278887 0.000000
0.787700 0.278111 0.000000
0.824384 0.277178 0.000000
0.860464 0.276229 0.000000
0.895524 0.275284 0.000000
0.929575 0.274345 0.000000
0.962625 0.273416 0.000000
0.994684 0.272499 0.000000
1.000000 0.271596 0.000000
1.000000 0.270711 0.000000
1.000000 0.270519 0.000000
1.000000 0.271005 0.000000
1.000000 0.271491 0.000000
0.031767 0.320280 0.022975
0.077155 0.320109 0.021475
0.118149 0.319938 0.020054
0.157337 0.319741 0.018638
0.195403 0.319511 0.017211
0.232672 0.319248 0.015764
0.269334 0.318951 0.014294
0.305513 0.318619 0.012797
0.341296 0.318253 0.011273
0.376746 0.317853 0.009720
0.411913 0.317418 0.008138
0.446835 0.316950 0.006526
0.481544 0.316448 0.004884
0.516066 0.315912 0.003212
0.550422 0.315344 0.001510
0.584630 0.314743 0.000000
0.618706 0.314110 0.000000
0.652664 0.313444 0.000000
0.686516 0.312746 0.000000
0.720271 0.312017 0.000000
0.753940 0.311256 0.000000
0.787531 0.310463 0.000000
0.824325 0.309511 0.000000
0.860438 0.308545 0.000000
0.895529 0.307584 0.000000
0.929609 0.306630 0.000000
0.962687 0.305685 0.000000
0.994773 0.304753 0.000000
1.000000 0.303837 0.000000
1.000000 0.302938 0.000000
1.000000 0.302762 0.000000
1.000000 0.303243 0.000000
1.000000 0.303725 0.000000
0.030684 0.352697 0.020870
0.075972 0.352507 0.019267
0.116983 0.352318 0.017749
0.156205 0.352102 0.016241
0.194311 0.351855 0.014724
0.231623 0.351575 0.013189
0.268330 0.351260 0.011632
0.304555 0.350911 0.010051
0.340384 0.350528 0.008442
0.375881 0.350111 0.006807
0.411094 0.349660 0.005143
0.446064 0.349175 0.003450
0.480820 0.348657 0.001727
0.515388 0.348106 0.000000
0.549791 0.347521 0.000000
0.584046 0.346905 0.000000
0.618169 0.346255 0.000000
0.652173 0.345574 0.000000
0.686071 0.344860 0.000000
0.719873 0.344115 0.000000
0.753589 0.343339 0.000000
0.787225 0.342531 0.000000
0.824129 0.341560 0.000000
0.860273 0.340579 0.000000
0.895394 0.339602 0.000000
0.929503 0.338633 0.000000
0.962610 0.337675 0.000000
0.994721 0.336729 0.000000
1.000000 0.335825 0.000000
1.000000 0.335477 0.000000
1.000000 0.335601 0.000000
1.000000 0.336096 0.000000
1.000000 0.336591 0.000000
0.029470 0.384857 0.018639
0.074666 0.384649 0.016934
0.115694 0.384442 0.015321
0.154949 0.384209 0.013721
0.193095 0.383945 0.012115
0.230450 0.383648 0.010493
0.267201 0.383317 0.008851
0.303471 0.382952 0.007185
0.339346 0.382553 0.005494
0.374888 0.382120 0.003776
0.410148 0.381653 0.002031
0.445164 0.381152 0.000258
0.479966 0.380619 0.000000
0.514581 0.380052 0.000000
0.549030 0.379452 0.000000
0.583331 0.378820 0.000000
0.617500 0.378156 0.000000
0.651551 0.377459 0.000000
0.685495 0.376731 0.000000
0.719343 0.375971 0.000000
0.753104 0.375180 0.000000
0.786787 0.374357 0.000000
0.823798 0.373367 0.000000
0.859974 0.372372 0.000000
0.895125 0.371381 0.000000
0.929263 0.370398 0.000000
0.962188 0.369485 0.000000
0.992643 0.369019 0.000000
1.000000 0.368615 0.000000
1.000000 0.368271 0.000000
1.000000 0.368408 0.000000
1.000000 0.368897 0.000000
1.000000 0.369385 0.000000
0.028129 0.416797 0.016283
0.073239 0.416571 0.014478
0.114285 0.416347 0.012770
0.153573 0.416097 0.011080
0.191757 0.415816 0.009386
0.229154 0.415503 0.007678
0.265949 0.415156 0.005951
0.302264 0.414776 0.004202
0.338183 0.414361 0.002429
0.373772 0.413913 0.000630
0.409077 0.413431 0.000000
0.444139 0.412915 0.000000
0.478987 0.412367 0.000000
0.513648 0.411785 0.000000
0.548143 0.411171 0.000000
0.582490 0.410524 0.000000
0.616705 0.409845 0.000000
0.650801 0.409134 0.000000
0.684791 0.408391 0.000000
0.718684 0.407617 0.000000
0.752490 0.406811 0.000000
0.786218 0.405975 0.000000
0.823337 0.404967 0.000000
0.859543 0.403957 0.000000
0.894630 0.402976 0.000000
0.927251 0.402379 0.000000
0.958745 0.401852 0.000000
0.989137 0.401391 0.000000
1.000000 0.400992 0.000000
1.000000 0.400653 0.000000
1.000000 0.400802 0.000000
1.000000 0.401285 0.000000
1.000000 0.401768 0.000000
0.026662 0.448545 0.013804
0.071693 0.448302 0.011900
0.112756 0.448061 0.010099
0.152077 0.447795 0.008319
0.190300 0.447499 0.006538
0.227738 0.447170 0.004745
0.264576 0.446808 0.002934
0.300935 0.446412 0.001103
0.336900 0.445982 0.000000
0.372533 0.445519 0.000000
0.407884 0.445022 0.000000
0.442991 0.444492 0.000000
0.477884 0.443929 0.000000
0.512591 0.443333 0.000000
0.547131 0.442705 0.000000
0.581523 0.442044 0.000000
0.615784 0.441351 0.000000
0.649925 0.440626 0.000000
0.683960 0.439869 0.000000
0.717898 0.439081 0.000000
0.751750 0.438262 0.000000
0.785522 0.437411 0.000000
0.822748 0.436387 0.000000
0.857787 0.435614 0.000000
0.891491 0.434949 0.000000
0.924045 0.434359 0.000000
0.955475 0.433838 0.000000
0.985804 0.433382 0.000000
1.000000 0.432989 0.000000
1.000000 0.432654 0.000000
1.000000 0.432817 0.000000
1.000000 0.433294 0.000000
1.000000 0.433772 0.000000
0.025072 0.480125 0.011204
0.070030 0.479866 0.009202
0.111110 0.479609 0.007309
0.150463 0.479327 0.005440
0.188724 0.479015 0.003572
0.226204 0.478671 0.001695
0.263085 0.478294 0.000000
0.299487 0.477884 0.000000
0.335496 0.477440 0.000000
0.371174 0.476962 0.000000
0.406570 0.476451 0.000000
0.441722 0.475907 0.000000
0.476660 0.475329 0.000000
0.511412 0.474720 0.000000
0.545997 0.474077 0.000000
0.580435 0.473402 0.000000
0.614740 0.472696 0.000000
0.648926 0.471957 0.000000
0.683006 0.471187 0.000000
0.716989 0.470385 0.000000
0.750885 0.469553 0.000000
0.784056 0.468778 0.000000
0.820071 0.467961 0.000000
0.854881 0.467226 0.000000
0.888517 0.466569 0.000000
0.921004 0.465985 0.000000
0.952370 0.465470 0.000000
0.982636 0.465021 0.000000
1.000000 0.464633 0.000000
1.000000 0.464303 0.000000
1.000000 0.464479 0.000000
1.000000 0.464951 0.000000
1.000000 0.465423 0.000000
0.023362 0.511558 0.008484
0.068252 0.511283 0.006385
0.109348 0.511010 0.004401
0.148733 0.510713 0.002444
0.187032 0.510386 0.000490
0.224553 0.510027 0.000000
0.261476 0.509636 0.000000
0.297922 0.509211 0.000000
0.333974 0.508752 0.000000
0.369697 0.508261 0.000000
0.405137 0.507736 0.000000
0.440334 0.507178 0.000000
0.475317 0.506587 0.000000
0.510113 0.505963 0.000000
0.544743 0.505307 0.000000
0.579225 0.504619 0.000000
0.613575 0.503899 0.000000
0.647806 0.503147 0.000000
0.681930 0.502364 0.000000
0.715551 0.501556 0.000000
0.748578 0.500780 0.000000
0.781452 0.500044 0.000000
0.817394 0.499234 0.000000
0.852135 0.498507 0.000000
0.885702 0.497857 0.000000
0.918124 0.497280 0.000000
0.949425 0.496772 0.000000
0.979629 0.496329 0.000000
1.000000 0.495947 0.000000
1.000000 0.495623 0.000000
1.000000 0.495811 0.000000
1.000000 0.496279 0.000000
1.000000 0.496746 0.000000
0.021533 0.542860 0.005645
0.066359 0.542570 0.003451
0.107472 0.542281 0.001376
0.146889 0.541969 0.000000
0.185226 0.541628 0.000000
0.222786 0.541254 0.000000
0.259752 0.540849 0.000000
0.296240 0.540410 0.000000
0.332337 0.539937 0.000000
0.368103 0.539432 0.000000
0.403588 0.538893 0.000000
0.438828 0.538322 0.000000
0.473856 0.537718 0.000000
0.508697 0.537081 0.000000
0.543371 0.536412 0.000000
0.577898 0.535711 0.000000
0.612292 0.534977 0.000000
0.646377 0.534172 0.000000
0.679889 0.533313 0.000000
0.713127 0.532499 0.000000
0.746105 0.531730 0.000000
0.779001 0.530998 0.000000
0.814872 0.530197 0.000000
0.849542 0.529478 0.000000
0.883042 0.528835 0.000000
0.915398 0.528266 0.000000
0.946636 0.527764 0.000000
0.976778 0.527327 0.000000
1.000000 0.526951 0.000000
1.000000 0.526633 0.000000
1.000000 0.526834 0.000000
1.000000 0.527297 0.000000
1.000000 0.527760 0.000000
0.019587 0.574047 0.002689
0.064353 0.573741 0.000401
0.105483 0.573437 0.000000
0.144932 0.573110 0.000000
0.183306 0.572754 0.000000
0.220906 0.572367 0.000000
0.257913 0.571947 0.000000
0.294445 0.571495 0.000000
0.330584 0.571009 0.000000
0.366394 0.570490 0.000000
0.401923 0.569938 0.000000
0.437208 0.569353 0.000000
0.472279 0.568736 0.000000
0.507164 0.568086 0.000000
0.541883 0.567404 0.000000
0.576408 0.566651 0.000000
0.610456 0.565705 0.000000
0.644203 0.564807 0.000000
0.677665 0.563955 0.000000
0.710854 0.563148 0.000000
0.743781 0.562386 0.000000
0.776700 0.561658 0.000000
0.812499 0.560866 0.000000
0.847100 0.560155 0.000000
0.880533 0.559520 0.000000
0.912823 0.558958 0.000000
0.943997 0.558463 0.000000
0.974078 0.558033 0.000000
1.000000 0.557663 0.000000
1.000000 0.557350 0.000000
1.000000 0.557564 0.000000
1.000000 0.558022 0.000000
1.000000 0.558481 0.000000
0.017526 0.605130 0.000000
0.062236 0.604809 0.000000
0.103383 0.604490 0.000000
0.142862 0.604149 0.000000
0.181273 0.603779 0.000000
0.218914 0.603378 0.000000
0.255962 0.602944 0.000000
0.292536 0.602478 0.000000
0.328719 0.601979 0.000000
0.364572 0.601447 0.000000
0.400144 0.600882 0.000000
0.435472 0.600284 0.000000
0.470588 0.599654 0.000000
0.505517 0.598991 0.000000
0.540168 0.597979 0.000000
0.574482 0.596992 0.000000
0.608478 0.596054 0.000000
0.642175 0.595163 0.000000
0.675586 0.594318 0.000000
0.708725 0.593519 0.000000
0.741604 0.592763 0.000000
0.774544 0.592040 0.000000
0.810272 0.591256 0.000000
0.844804 0.590554 0.000000
0.878170 0.589927 0.000000
0.910395 0.589372 0.000000
0.941506 0.588885 0.000000
0.971526 0.588461 0.000000
1.000000 0.588097 0.000000
1.000000 0.587790 0.000000
1.000000 0.588016 0.000000
1.000000 0.588471 0.000000
1.000000 0.588926 0.000000
0.015351 0.636120 0.000000
0.060008 0.635785 0.000000
0.101172 0.635452 0.000000
0.140683 0.635096 0.000000
0.179130 0.634712 0.000000
0.216810 0.634297 0.000000
0.253900 0.633850 0.000000
0.290516 0.633371 0.000000
0.326741 0.632858 0.000000
0.362637 0.632313 0.000000
0.398253 0.631735 0.000000
0.433625 0.631125 0.000000
0.468882 0.630159 0.000000
0.503837 0.629077 0.000000
0.538435 0.628048 0.000000
0.572696 0.627068 0.000000
0.606642 0.626137 0.000000
0.640288 0.625254 0.000000
0.673650 0.624416 0.000000
0.706739 0.623624 0.000000
0.739569 0.622875 0.000000
0.772531 0.622157 0.000000
0.808188 0.621382 0.000000
0.842651 0.620688 0.000000
0.875950 0.620069 0.000000
0.908110 0.619522 0.000000
0.939159 0.619041 0.000000
0.969117 0.618624 0.000000
0.998009 0.618267 0.000000
1.000000 0.617966 0.000000
1.000000 0.618205 0.000000
1.000000 0.618655 0.000000
1.000000 0.619106 0.000000
0.013063 0.667028 0.000000
0.057671 0.666678 0.000000
0.098852 0.666330 0.000000
0.138394 0.665961 0.000000
0.176878 0.665563 0.000000
0.214597 0.665135 0.000000
0.251727 0.664674 0.000000
0.288385 0.664182 0.000000
0.324652 0.663657 0.000000
0.360592 0.663099 0.000000
0.396412 0.662269 0.000000
0.432108 0.661086 0.000000
0.467392 0.659958 0.000000
0.502294 0.658884 0.000000
0.536839 0.657862 0.000000
0.571050 0.656890 0.000000
0.604945 0.655967 0.000000
0.638540 0.655091 0.000000
0.671852 0.654261 0.000000
0.704892 0.653475 0.000000
0.737673 0.652734 0.000000
0.770657 0.652021 0.000000
0.806243 0.651255 0.000000
0.840638 0.650569 0.000000
0.873870 0.649959 0.000000
0.905966 0.649419 0.000000
0.936951 0.648946 0.000000
0.966850 0.648536 0.000000
0.995683 0.648185 0.000000
1.000000 0.647890 0.000000
1.000000 0.648141 0.000000
1.000000 0.648588 0.000000
1.000000 0.649035 0.000000
0.010664 0.697862 0.000000
0.055225 0.697497 0.000000
0.096424 0.697135 0.000000
0.135996 0.696752 0.000000
0.174516 0.696341 0.000000
0.212275 0.695899 0.000000
0.249445 0.695426 0.000000
0.286145 0.694920 0.000000
0.322494 0.694339 0.000000
0.359076 0.693043 0.000000
0.395165 0.691808 0.000000
0.430807 0.690633 0.000000
0.466037 0.689513 0.000000
0.500886 0.688447 0.000000
0.535379 0.687433 0.000000
0.569538 0.686469 0.000000
0.603383 0.685553 0.000000
0.636929 0.684685 0.000000
0.670191 0.683862 0.000000
0.703182 0.683085 0.000000
0.735914 0.682351 0.000000
0.768919 0.681642 0.000000
0.804435 0.680886 0.000000
0.838761 0.680208 0.000000
0.871927 0.679606 0.000000
0.903959 0.679074 0.000000
0.934882 0.678608 0.000000
0.964720 0.678205 0.000000
0.993494 0.677861 0.000000
1.000000 0.677572 0.000000
1.000000 0.677835 0.000000
1.000000 0.678278 0.000000
1.000000 0.678722 0.000000
0.008155 0.728628 0.000000
0.052673 0.728250 0.000000
0.093889 0.727874 0.000000
0.133491 0.727477 0.000000
0.172047 0.727052 0.000000
0.209844 0.726597 0.000000
0.247056 0.726111 0.000000
0.284423 0.724980 0.000000
0.321492 0.723627 0.000000
0.358016 0.722340 0.000000
0.394050 0.721114 0.000000
0.429637 0.719947 0.000000
0.464814 0.718835 0.000000
0.499611 0.717778 0.000000
0.534052 0.716771 0.000000
0.568160 0.715815 0.000000
0.601954 0.714907 0.000000
0.635450 0.714046 0.000000
0.668663 0.713231 0.000000
0.701606 0.712461 0.000000
0.734290 0.711735 0.000000
0.767315 0.711032 0.000000
0.802760 0.710284 0.000000
0.837019 0.709615 0.000000
0.870119 0.709021 0.000000
0.902087 0.708497 0.000000
0.932948 0.708039 0.000000
0.962725 0.707643 0.000000
0.991441 0.707305 0.000000
1.000000 0.707023 0.000000
1.000000 0.707297 0.000000
1.000000 0.707737 0.000000
1.000000 0.708177 0.000000
0.005537 0.759335 0.000000
0.050014 0.758943 0.000000
0.091247 0.758553 0.000000
0.130880 0.758142 0.000000
0.169472 0.757704 0.000000
0.207652 0.756940 0.000000
0.245984 0.755449 0.000000
0.283608 0.754035 0.000000
0.320619 0.752691 0.000000
0.357087 0.751412 0.000000
0.393065 0.750195 0.000000
0.428598 0.749036 0.000000
0.463721 0.747933 0.000000
0.498466 0.746883 0.000000
0.532855 0.745885 0.000000
0.566913 0.744937 0.000000
0.600657 0.744037 0.000000
0.634103 0.743183 0.000000
0.667267 0.742376 0.000000
0.700161 0.741614 0.000000
0.732797 0.740895 0.000000
0.765842 0.740197 0.000000
0.801218 0.739458 0.000000
0.835409 0.738798 0.000000
0.868443 0.738212 0.000000
0.900347 0.737696 0.000000
0.931146 0.737245 0.000000
0.960863 0.736857 0.000000
0.989521 0.736526 0.000000
1.000000 0.736250 0.000000
1.000000 0.736535 0.000000
1.000000 0.736972 0.000000
1.000000 0.737409 0.000000
0.002794 0.790130 0.000000
0.047229 0.789756 0.000000
0.088476 0.789384 0.000000
0.128136 0.788991 0.000000
0.167978 0.787577 0.000000
0.207077 0.786040 0.000000
0.245343 0.784588 0.000000
0.282905 0.783212 0.000000
0.319856 0.781906 0.000000
0.356265 0.780666 0.000000
0.392186 0.779486 0.000000
0.427662 0.778365 0.000000
0.462731 0.777299 0.000000
0.497420 0.776286 0.000000
0.531757 0.775324 0.000000
0.565761 0.774412 0.000000
0.599452 0.773548 0.000000
0.632846 0.772731 0.000000
0.665958 0.771960 0.000000
0.698801 0.771233 0.000000
0.731386 0.770550 0.000000
0.764449 0.769886 0.000000
0.799752 0.769184 0.000000
0.833872 0.768561 0.000000
0.866837 0.768011 0.000000
0.898675 0.767530 0.000000
0.929409 0.767115 0.000000
0.959063 0.766760 0.000000
0.987659 0.766464 0.000000
1.000000 0.766221 0.000000
1.000000 0.766545 0.000000
1.000000 0.767006 0.000000
1.000000 0.767466 0.000000
0.000000 0.822609 0.000000
0.044133 0.822213 0.000000
0.086124 0.821273 0.000000
0.127497 0.819526 0.000000
0.167544 0.817896 0.000000
0.206574 0.816363 0.000000
0.244774 0.814914 0.000000
0.282274 0.813541 0.000000
0.319164 0.812238 0.000000
0.355514 0.811000 0.000000
0.391377 0.809822 0.000000
0.426798 0.808703 0.000000
0.461811 0.807639 0.000000
0.496447 0.806628 0.000000
0.530730 0.805668 0.000000
0.564682 0.804758 0.000000
0.598321 0.803896 0.000000
0.631664 0.803080 0.000000
0.664726 0.802310 0.000000
0.697518 0.801585 0.000000
0.730053 0.800903 0.000000
0.763134 0.800237 0.000000
0.798365 0.799539 0.000000
0.832416 0.798918 0.000000
0.865315 0.798370 0.000000
0.897087 0.797891 0.000000
0.927758 0.797476 0.000000
0.957351 0.797123 0.000000
0.985888 0.796826 0.000000
1.000000 0.796584 0.000000
1.000000 0.796912 0.000000
1.000000 0.797362 0.000000
1.000000 0.797813 0.000000
0.000000 0.854568 0.000000
0.042805 0.852811 0.000000
0.085999 0.850918 0.000000
0.127289 0.849177 0.000000
0.167262 0.847551 0.000000
0.206223 0.846021 0.000000
0.244359 0.844576 0.000000
0.281797 0.843206 0.000000
0.318627 0.841905 0.000000
0.354919 0.840669 0.000000
0.390726 0.839494 0.000000
0.426092 0.838377 0.000000
0.461051 0.837315 0.000000
0.495633 0.836306 0.000000
0.529864 0.835348 0.000000
0.563764 0.834439 0.000000
0.597352 0.833579 0.000000
0.630645 0.832765 0.000000
0.663656 0.831996 0.000000
0.696400 0.831272 0.000000
0.728886 0.830591 0.000000
0.761984 0.829925 0.000000
0.797145 0.829229 0.000000
0.831128 0.828611 0.000000
0.863960 0.828065 0.000000
0.895668 0.827587 0.000000
0.926277 0.827174 0.000000
0.955809 0.826821 0.000000
0.984288 0.826525 0.000000
1.000000 0.826283 0.000000
1.000000 0.826615 0.000000
1.000000 0.827056 0.000000
1.000000 0.827496 0.000000
0.000000 0.883933 0.000000
0.042922 0.881801 0.000000
0.086016 0.879915 0.000000
0.127224 0.878179 0.000000
0.167124 0.876557 0.000000
0.206018 0.875031 0.000000
0.244090 0.873589 0.000000
0.281467 0.872222 0.000000
0.318238 0.870924 0.000000
0.354473 0.869691 0.000000
0.390225 0.868518 0.000000
0.425536 0.867403 0.000000
0.460442 0.866343 0.000000
0.494972 0.865336 0.000000
0.529151 0.864380 0.000000
0.563000 0.863473 0.000000
0.596538 0.862614 0.000000
0.629781 0.861801 0.000000
0.662743 0.861034 0.000000
0.695438 0.860312 0.000000
0.727876 0.859632 0.000000
0.760993 0.858965 0.000000
0.796084 0.858272 0.000000
0.829999 0.857656 0.000000
0.862766 0.857112 0.000000
0.894410 0.856636 0.000000
0.924958 0.856224 0.000000
0.954430 0.855872 0.000000
0.982851 0.855577 0.000000
